; generated by Slic3r 1.1.7 on 2014-11-22 at 13:38:44

; perimeters extrusion width = 0.35mm
; infill extrusion width = 0.46mm
; solid infill extrusion width = 0.46mm
; top infill extrusion width = 0.46mm
; support material extrusion width = 0.35mm

G21 ; set units to millimeters
M107
G28 ; home all axes
M203 X192 Y208 Z3 ; Speed limits to minimize skipped steps when moving really fast courtesy of forum.lulzbot.com user 1013
G90 ; use absolute coordinates
G92 E0
M82 ; use absolute distances for extrusion
G1 F1800.000 E-2.00000
G92 E0
G1 Z0.350 F10800.000
G1 X138.915 Y128.753 F10800.000
G1 E2.00000 F1800.000
G1 X140.668 Y127.274 E2.07647 F600.000
G1 X142.820 Y126.481 E2.15293
G1 X144.000 Y126.375 E2.19243
G1 X154.000 Y126.375 E2.52584
G1 X156.259 Y126.772 E2.60231
G1 X158.247 Y127.915 E2.67878 F600.000
G1 X159.726 Y129.668 E2.75525
G1 X160.519 Y131.820 E2.83171
G1 X160.625 Y133.000 E2.87121
G1 X160.625 Y143.000 E3.20462
G1 X160.228 Y145.259 E3.28109
G1 X159.085 Y147.247 E3.35756
G1 X157.332 Y148.726 E3.43402
G1 X155.180 Y149.519 E3.51049
G1 X154.000 Y149.625 E3.54998
G1 X144.000 Y149.625 E3.88340
G1 X141.741 Y149.228 E3.95987
G1 X139.753 Y148.085 E4.03633
G1 X138.274 Y146.332 E4.11280
G1 X137.481 Y144.180 E4.18927
G1 X137.375 Y143.000 E4.22876
G1 X137.375 Y133.000 E4.56218
G1 X137.772 Y130.741 E4.63864
G1 X138.889 Y128.799 E4.71336
G1 F1800.000 E2.71336
G92 E0
G1 X153.025 Y142.025 F10800.000
G1 E2.00000 F1800.000
G1 X144.975 Y142.025 E2.26841 F761.639
G1 X144.975 Y133.975 E2.53681
G1 X153.025 Y133.975 E2.80522
G1 X153.025 Y141.973 E3.07188
G1 X153.650 Y142.650 F10800.000
G1 X144.350 Y142.650 E3.38195 F600.000
G1 X144.350 Y133.350 E3.69203
G1 X153.650 Y133.350 E4.00211
G1 X153.650 Y142.598 E4.31043
G1 X153.347 Y142.475 F10800.000
G1 X145.448 Y141.592 F10800.000
G1 X145.408 Y141.552 E4.31232 F600.000
G1 X145.408 Y140.659 E4.34209
G1 X146.341 Y141.592 E4.38609
G1 X147.234 Y141.592 E4.41586
G1 X145.408 Y139.766 E4.50196
G1 X145.408 Y138.873 E4.53174
G1 X148.127 Y141.592 E4.65995
G1 X149.020 Y141.592 E4.68972
G1 X145.408 Y137.980 E4.86004
G1 X145.408 Y137.087 E4.88981
G1 X149.913 Y141.592 E5.10224
G1 X150.806 Y141.592 E5.13201
G1 X145.408 Y136.194 E5.38655
G1 X145.408 Y135.301 E5.41632
G1 X151.699 Y141.592 E5.71296
G1 X152.572 Y141.572 E5.74208
G1 X145.428 Y134.428 E6.07894
G1 X146.301 Y134.408 E6.10805
G1 X152.592 Y140.699 E6.40470
G1 X152.592 Y139.806 E6.43447
G1 X147.194 Y134.408 E6.68900
G1 X148.087 Y134.408 E6.71878
G1 X152.592 Y138.913 E6.93120
G1 X152.592 Y138.020 E6.96098
G1 X148.980 Y134.408 E7.13129
G1 X149.873 Y134.408 E7.16107
G1 X152.592 Y137.127 E7.28928
G1 X152.592 Y136.234 E7.31905
G1 X150.766 Y134.408 E7.40516
G1 X151.659 Y134.408 E7.43493
G1 X152.592 Y135.341 E7.47892
G1 X152.592 Y134.448 E7.50870
G1 X152.552 Y134.408 E7.51059
M106 S255
G1 F1800.000 E5.51059
G92 E0
G1 Z0.570 F10800.000
G1 X153.475 Y142.475 F10800.000
G1 E2.00000 F1800.000
G1 X144.525 Y142.475 E2.10506 F776.370
G1 X144.525 Y133.525 E2.21012
G1 X153.475 Y133.525 E2.31517
G1 X153.475 Y142.423 E2.41961
G1 X153.825 Y142.825 F10800.000
G1 X144.175 Y142.825 E2.53289 F600.000
G1 X144.175 Y133.175 E2.64616
G1 X153.825 Y133.175 E2.75944
G1 X153.825 Y142.773 E2.87210
G1 X153.522 Y142.650 F10800.000
G1 X153.222 Y142.182 F10800.000
G1 X153.182 Y142.222 E2.87293 F600.000
G1 X152.559 Y142.222 E2.88206
G1 X153.222 Y141.559 E2.89580
G1 X153.222 Y140.937 E2.90493
G1 X151.937 Y142.222 E2.93158
G1 X151.314 Y142.222 E2.94071
G1 X153.222 Y140.314 E2.98027
G1 X153.222 Y139.692 E2.98940
G1 X150.692 Y142.222 E3.04188
G1 X150.069 Y142.222 E3.05101
G1 X153.222 Y139.069 E3.11639
G1 X153.222 Y138.447 E3.12552
G1 X149.447 Y142.222 E3.20382
G1 X148.824 Y142.222 E3.21295
G1 X153.222 Y137.824 E3.30416
G1 X153.222 Y137.202 E3.31329
G1 X148.202 Y142.222 E3.41741
G1 X147.579 Y142.222 E3.42654
G1 X153.222 Y136.579 E3.54357
G1 X153.222 Y135.957 E3.55270
G1 X146.957 Y142.222 E3.68264
G1 X146.335 Y142.222 E3.69177
G1 X153.222 Y135.335 E3.83462
G1 X153.222 Y134.712 E3.84375
G1 X145.712 Y142.222 E3.99952
G1 X145.090 Y142.222 E4.00865
G1 X153.222 Y134.090 E4.17732
G1 X152.910 Y133.778 E4.18378
G1 X144.778 Y141.910 E4.35246
G1 X144.778 Y141.288 E4.36158
G1 X152.288 Y133.778 E4.51735
G1 X151.665 Y133.778 E4.52648
G1 X144.778 Y140.665 E4.66933
G1 X144.778 Y140.043 E4.67846
G1 X151.043 Y133.778 E4.80841
G1 X150.421 Y133.778 E4.81753
G1 X144.778 Y139.421 E4.93457
G1 X144.778 Y138.798 E4.94370
G1 X149.798 Y133.778 E5.04782
G1 X149.176 Y133.778 E5.05694
G1 X144.778 Y138.176 E5.14815
G1 X144.778 Y137.553 E5.15728
G1 X148.553 Y133.778 E5.23558
G1 X147.931 Y133.778 E5.24471
G1 X144.778 Y136.931 E5.31010
G1 X144.778 Y136.308 E5.31923
G1 X147.308 Y133.778 E5.37170
G1 X146.686 Y133.778 E5.38083
G1 X144.778 Y135.686 E5.42039
G1 X144.778 Y135.063 E5.42952
G1 X146.063 Y133.778 E5.45618
G1 X145.441 Y133.778 E5.46531
G1 X144.778 Y134.441 E5.47905
G1 X144.778 Y133.818 E5.48818
G1 X144.818 Y133.778 E5.48901
G1 F1800.000 E3.48901
G92 E0
G1 Z0.790 F10800.000
G1 X153.475 Y142.475 F10800.000
G1 E2.00000 F1800.000
G1 X144.525 Y142.475 E2.10506 F776.370
G1 X144.525 Y133.525 E2.21012
G1 X153.475 Y133.525 E2.31517
G1 X153.475 Y142.423 E2.41961
G1 X153.825 Y142.825 F10800.000
G1 X144.175 Y142.825 E2.53289 F600.000
G1 X144.175 Y133.175 E2.64616
G1 X153.825 Y133.175 E2.75944
G1 X153.825 Y142.773 E2.87210
G1 X153.522 Y142.650 F10800.000
G1 X144.778 Y142.182 F10800.000
G1 X144.818 Y142.222 E2.87293 F600.000
G1 X145.441 Y142.222 E2.88206
G1 X144.778 Y141.559 E2.89580
G1 X144.778 Y140.937 E2.90493
G1 X146.063 Y142.222 E2.93158
G1 X146.686 Y142.222 E2.94071
G1 X144.778 Y140.314 E2.98027
G1 X144.778 Y139.692 E2.98940
G1 X147.308 Y142.222 E3.04188
G1 X147.931 Y142.222 E3.05101
G1 X144.778 Y139.069 E3.11639
G1 X144.778 Y138.447 E3.12552
G1 X148.553 Y142.222 E3.20382
G1 X149.176 Y142.222 E3.21295
G1 X144.778 Y137.824 E3.30416
G1 X144.778 Y137.202 E3.31329
G1 X149.798 Y142.222 E3.41741
G1 X150.421 Y142.222 E3.42654
G1 X144.778 Y136.579 E3.54357
G1 X144.778 Y135.957 E3.55270
G1 X151.043 Y142.222 E3.68264
G1 X151.665 Y142.222 E3.69177
G1 X144.778 Y135.335 E3.83462
G1 X144.778 Y134.712 E3.84375
G1 X152.288 Y142.222 E3.99952
G1 X152.910 Y142.222 E4.00865
G1 X144.778 Y134.090 E4.17732
G1 X145.090 Y133.778 E4.18378
G1 X153.222 Y141.910 E4.35246
G1 X153.222 Y141.288 E4.36158
G1 X145.712 Y133.778 E4.51735
G1 X146.335 Y133.778 E4.52648
G1 X153.222 Y140.665 E4.66933
G1 X153.222 Y140.043 E4.67846
G1 X146.957 Y133.778 E4.80841
G1 X147.579 Y133.778 E4.81753
G1 X153.222 Y139.421 E4.93457
G1 X153.222 Y138.798 E4.94370
G1 X148.202 Y133.778 E5.04782
G1 X148.824 Y133.778 E5.05694
G1 X153.222 Y138.176 E5.14815
G1 X153.222 Y137.553 E5.15728
G1 X149.447 Y133.778 E5.23558
G1 X150.069 Y133.778 E5.24471
G1 X153.222 Y136.931 E5.31010
G1 X153.222 Y136.308 E5.31923
G1 X150.692 Y133.778 E5.37170
G1 X151.314 Y133.778 E5.38083
G1 X153.222 Y135.686 E5.42039
G1 X153.222 Y135.063 E5.42952
G1 X151.937 Y133.778 E5.45618
G1 X152.559 Y133.778 E5.46531
G1 X153.222 Y134.441 E5.47905
G1 X153.222 Y133.818 E5.48818
G1 X153.182 Y133.778 E5.48901
G1 F1800.000 E3.48901
G92 E0
G1 Z1.010 F10800.000
G1 X153.475 Y142.475 F10800.000
G1 E2.00000 F1800.000
G1 X144.525 Y142.475 E2.10506 F600.000
G1 X144.525 Y133.525 E2.21012
G1 X153.475 Y133.525 E2.31517
G1 X153.475 Y142.423 E2.41961
G1 X153.825 Y142.825 F10800.000
G1 X144.175 Y142.825 E2.53289 F600.000
G1 X144.175 Y133.175 E2.64616
G1 X153.825 Y133.175 E2.75944
G1 X153.825 Y142.773 E2.87210
G1 X153.522 Y142.650 F10800.000
G1 X152.766 Y142.222 F10800.000
G1 X153.222 Y141.698 E2.88228 F600.000
G1 X153.222 Y140.530 E2.89941
G1 X151.530 Y142.222 E2.93450
G1 X150.454 Y142.222 E2.95029
G1 X153.222 Y139.038 E3.01216
G1 X153.222 Y138.056 E3.02657
G1 X149.056 Y142.222 E3.11298
G1 X148.141 Y142.222 E3.12639
G1 X153.222 Y136.379 E3.23995
G1 X153.222 Y135.582 E3.25164
G1 X146.582 Y142.222 E3.38937
G1 X145.829 Y142.222 E3.40042
G1 X153.171 Y133.778 E3.56452
G1 X152.551 Y133.778 E3.57361
G1 X144.778 Y141.551 E3.73483
G1 X144.778 Y140.770 E3.74629
G1 X150.858 Y133.778 E3.88219
G1 X150.077 Y133.778 E3.89363
G1 X144.778 Y139.077 E4.00355
G1 X144.778 Y138.111 E4.01773
G1 X148.545 Y133.778 E4.10193
G1 X147.604 Y133.778 E4.11575
G1 X144.778 Y136.604 E4.17435
G1 X144.778 Y135.451 E4.19125
G1 X146.233 Y133.778 E4.22376
G1 X145.130 Y133.778 E4.23994
G1 X144.778 Y134.130 E4.24723
G1 F1800.000 E2.24723
G92 E0
G1 Z1.230 F10800.000
G1 X153.475 Y142.475 F10800.000
G1 E2.00000 F1800.000
G1 X144.525 Y142.475 E2.10506 F600.000
G1 X144.525 Y133.525 E2.21012
G1 X153.475 Y133.525 E2.31517
G1 X153.475 Y142.423 E2.41961
G1 X153.825 Y142.825 F10800.000
G1 X144.175 Y142.825 E2.53289 F600.000
G1 X144.175 Y133.175 E2.64616
G1 X153.825 Y133.175 E2.75944
G1 X153.825 Y142.773 E2.87210
G1 X153.522 Y142.650 F10800.000
G1 X153.222 Y134.383 F10800.000
G1 X152.526 Y133.778 E2.88562 F600.000
G1 X151.366 Y133.778 E2.90262
G1 X153.222 Y135.634 E2.94110
G1 X153.222 Y136.695 E2.95666
G1 X149.865 Y133.778 E3.02188
G1 X148.893 Y133.778 E3.03614
G1 X153.222 Y138.107 E3.12594
G1 X153.222 Y139.006 E3.13912
G1 X147.205 Y133.778 E3.25603
G1 X146.419 Y133.778 E3.26756
G1 X153.222 Y140.581 E3.40866
G1 X153.222 Y141.318 E3.41947
G1 X144.778 Y133.982 E3.58352
G1 X144.778 Y134.612 E3.59276
G1 X152.388 Y142.222 E3.75060
G1 X151.601 Y142.222 E3.76215
G1 X144.778 Y136.294 E3.89471
G1 X144.778 Y137.086 E3.90633
G1 X149.914 Y142.222 E4.01286
G1 X148.940 Y142.222 E4.02714
G1 X144.778 Y138.605 E4.10801
G1 X144.778 Y139.560 E4.12201
G1 X147.440 Y142.222 E4.17722
G1 X146.280 Y142.222 E4.19424
G1 X144.778 Y140.917 E4.22342
G1 X144.778 Y142.034 E4.23979
G1 X144.966 Y142.222 E4.24369
G1 F1800.000 E2.24369
G92 E0
G1 Z1.450 F10800.000
G1 X153.475 Y142.475 F10800.000
G1 E2.00000 F1800.000
G1 X144.525 Y142.475 E2.10506 F600.000
G1 X144.525 Y133.525 E2.21012
G1 X153.475 Y133.525 E2.31517
G1 X153.475 Y142.423 E2.41961
G1 X153.825 Y142.825 F10800.000
G1 X144.175 Y142.825 E2.53289 F600.000
G1 X144.175 Y133.175 E2.64616
G1 X153.825 Y133.175 E2.75944
G1 X153.825 Y142.773 E2.87210
G1 X153.522 Y142.650 F10800.000
G1 X152.766 Y142.222 F10800.000
G1 X153.222 Y141.698 E2.88228 F600.000
G1 X153.222 Y140.530 E2.89941
G1 X151.530 Y142.222 E2.93450
G1 X150.454 Y142.222 E2.95029
G1 X153.222 Y139.038 E3.01216
G1 X153.222 Y138.056 E3.02657
G1 X149.056 Y142.222 E3.11298
G1 X148.141 Y142.222 E3.12639
G1 X153.222 Y136.379 E3.23995
G1 X153.222 Y135.582 E3.25164
G1 X146.582 Y142.222 E3.38937
G1 X145.829 Y142.222 E3.40042
G1 X153.171 Y133.778 E3.56452
G1 X152.551 Y133.778 E3.57361
G1 X144.778 Y141.551 E3.73483
G1 X144.778 Y140.770 E3.74629
G1 X150.858 Y133.778 E3.88219
G1 X150.077 Y133.778 E3.89363
G1 X144.778 Y139.077 E4.00355
G1 X144.778 Y138.111 E4.01773
G1 X148.545 Y133.778 E4.10193
G1 X147.604 Y133.778 E4.11575
G1 X144.778 Y136.604 E4.17435
G1 X144.778 Y135.451 E4.19125
G1 X146.233 Y133.778 E4.22376
G1 X145.130 Y133.778 E4.23994
G1 X144.778 Y134.130 E4.24723
G1 F1800.000 E2.24723
G92 E0
G1 Z1.670 F10800.000
G1 X153.475 Y142.475 F10800.000
G1 E2.00000 F1800.000
G1 X144.525 Y142.475 E2.10506 F816.452
G1 X144.525 Y133.525 E2.21012
G1 X153.475 Y133.525 E2.31517
G1 X153.475 Y142.423 E2.41961
G1 X153.825 Y142.825 F10800.000
G1 X144.175 Y142.825 E2.53289 F600.000
G1 X144.175 Y133.175 E2.64616
G1 X153.825 Y133.175 E2.75944
G1 X153.825 Y142.773 E2.87210
G1 X153.522 Y142.650 F10800.000
G1 X144.778 Y142.182 F10800.000
M106 S255
G1 X144.818 Y142.222 E2.87293 F3600.000
G1 X145.398 Y142.222 E2.88143
G1 X144.778 Y141.602 E2.89428
G1 X144.778 Y141.023 E2.90278
G1 X145.977 Y142.222 E2.92765
G1 X146.557 Y142.222 E2.93615
G1 X144.778 Y140.443 E2.97304
G1 X144.778 Y139.863 E2.98154
G1 X147.137 Y142.222 E3.03045
G1 X147.716 Y142.222 E3.03895
G1 X144.778 Y139.284 E3.09989
G1 X144.778 Y138.704 E3.10839
G1 X148.296 Y142.222 E3.18134
G1 X148.875 Y142.222 E3.18984
G1 X144.778 Y138.125 E3.27482
G1 X144.778 Y137.545 E3.28332
G1 X149.455 Y142.222 E3.38031
G1 X150.034 Y142.222 E3.38881
G1 X144.778 Y136.966 E3.49783
G1 X144.778 Y136.386 E3.50633
G1 X150.614 Y142.222 E3.62737
G1 X151.193 Y142.222 E3.63587
G1 X144.778 Y135.807 E3.76893
G1 X144.778 Y135.227 E3.77743
G1 X151.773 Y142.222 E3.92251
G1 X152.352 Y142.222 E3.93101
G1 X144.778 Y134.648 E4.08811
G1 X144.778 Y134.068 E4.09661
G1 X152.932 Y142.222 E4.26573
G1 X153.222 Y141.932 E4.27174
G1 X145.068 Y133.778 E4.44086
G1 X145.648 Y133.778 E4.44936
G1 X153.222 Y141.352 E4.60646
G1 X153.222 Y140.773 E4.61496
G1 X146.227 Y133.778 E4.76004
G1 X146.807 Y133.778 E4.76854
G1 X153.222 Y140.193 E4.90160
G1 X153.222 Y139.614 E4.91010
G1 X147.386 Y133.778 E5.03113
G1 X147.966 Y133.778 E5.03963
G1 X153.222 Y139.034 E5.14865
G1 X153.222 Y138.455 E5.15715
G1 X148.545 Y133.778 E5.25415
G1 X149.125 Y133.778 E5.26265
G1 X153.222 Y137.875 E5.34762
G1 X153.222 Y137.296 E5.35612
G1 X149.704 Y133.778 E5.42908
G1 X150.284 Y133.778 E5.43758
G1 X153.222 Y136.716 E5.49851
G1 X153.222 Y136.137 E5.50701
G1 X150.863 Y133.778 E5.55592
G1 X151.443 Y133.778 E5.56442
G1 X153.222 Y135.557 E5.60132
G1 X153.222 Y134.977 E5.60982
G1 X152.023 Y133.778 E5.63469
G1 X152.602 Y133.778 E5.64319
G1 X153.222 Y134.398 E5.65604
G1 X153.222 Y133.818 E5.66454
G1 X153.182 Y133.778 E5.66537
M106 S255
G1 F1800.000 E3.66537
G92 E0
G1 Z1.890 F10800.000
G1 X153.475 Y142.475 F10800.000
G1 E2.00000 F1800.000
G1 X144.525 Y142.475 E2.10506 F776.370
G1 X144.525 Y133.525 E2.21012
G1 X153.475 Y133.525 E2.31517
G1 X153.475 Y142.423 E2.41961
G1 X153.825 Y142.825 F10800.000
G1 X144.175 Y142.825 E2.53289 F600.000
G1 X144.175 Y133.175 E2.64616
G1 X153.825 Y133.175 E2.75944
G1 X153.825 Y142.773 E2.87210
G1 X153.522 Y142.650 F10800.000
G1 X153.222 Y142.182 F10800.000
G1 X153.182 Y142.222 E2.87293 F600.000
G1 X152.559 Y142.222 E2.88206
G1 X153.222 Y141.559 E2.89580
G1 X153.222 Y140.937 E2.90493
G1 X151.937 Y142.222 E2.93158
G1 X151.314 Y142.222 E2.94071
G1 X153.222 Y140.314 E2.98027
G1 X153.222 Y139.692 E2.98940
G1 X150.692 Y142.222 E3.04188
G1 X150.069 Y142.222 E3.05101
G1 X153.222 Y139.069 E3.11639
G1 X153.222 Y138.447 E3.12552
G1 X149.447 Y142.222 E3.20382
G1 X148.824 Y142.222 E3.21295
G1 X153.222 Y137.824 E3.30416
G1 X153.222 Y137.202 E3.31329
G1 X148.202 Y142.222 E3.41741
G1 X147.579 Y142.222 E3.42654
G1 X153.222 Y136.579 E3.54357
G1 X153.222 Y135.957 E3.55270
G1 X146.957 Y142.222 E3.68264
G1 X146.335 Y142.222 E3.69177
G1 X153.222 Y135.335 E3.83462
G1 X153.222 Y134.712 E3.84375
G1 X145.712 Y142.222 E3.99952
G1 X145.090 Y142.222 E4.00865
G1 X153.222 Y134.090 E4.17732
G1 X152.910 Y133.778 E4.18378
G1 X144.778 Y141.910 E4.35246
G1 X144.778 Y141.288 E4.36158
G1 X152.288 Y133.778 E4.51735
G1 X151.665 Y133.778 E4.52648
G1 X144.778 Y140.665 E4.66933
G1 X144.778 Y140.043 E4.67846
G1 X151.043 Y133.778 E4.80841
G1 X150.421 Y133.778 E4.81753
G1 X144.778 Y139.421 E4.93457
G1 X144.778 Y138.798 E4.94370
G1 X149.798 Y133.778 E5.04782
G1 X149.176 Y133.778 E5.05694
G1 X144.778 Y138.176 E5.14815
G1 X144.778 Y137.553 E5.15728
G1 X148.553 Y133.778 E5.23558
G1 X147.931 Y133.778 E5.24471
G1 X144.778 Y136.931 E5.31010
G1 X144.778 Y136.308 E5.31923
G1 X147.308 Y133.778 E5.37170
G1 X146.686 Y133.778 E5.38083
G1 X144.778 Y135.686 E5.42039
G1 X144.778 Y135.063 E5.42952
G1 X146.063 Y133.778 E5.45618
G1 X145.441 Y133.778 E5.46531
G1 X144.778 Y134.441 E5.47905
G1 X144.778 Y133.818 E5.48818
G1 X144.818 Y133.778 E5.48901
G1 F1800.000 E3.48901
G92 E0
G1 Z2.110 F10800.000
G1 X153.475 Y142.475 F10800.000
G1 E2.00000 F1800.000
G1 X144.525 Y142.475 E2.10506 F895.318
G1 X144.525 Y133.525 E2.21012
G1 X153.475 Y133.525 E2.31517
G1 X153.475 Y142.423 E2.41961
G1 X153.825 Y142.825 F10800.000
G1 X144.175 Y142.825 E2.53289 F626.723
G1 X144.175 Y133.175 E2.64616
G1 X153.825 Y133.175 E2.75944
G1 X153.825 Y142.773 E2.87210
G1 X153.522 Y142.650 F10800.000
G1 X144.778 Y142.182 F10800.000
G1 X144.818 Y142.222 E2.87293 F600.000
G1 X145.441 Y142.222 E2.88206
G1 X144.778 Y141.559 E2.89580
G1 X144.778 Y140.937 E2.90493
G1 X146.063 Y142.222 E2.93158
G1 X146.686 Y142.222 E2.94071
G1 X144.778 Y140.314 E2.98027
G1 X144.778 Y139.692 E2.98940
G1 X147.308 Y142.222 E3.04188
